X:1
T:Candy Kisses
M:4/4
L:1/4
K:C
| E G
w:Can-dy
| E C3-| C2 A c| A2 F2-| F c c A| G4-| G E E/2D/2 C| D4-| D2 E G
w:kis-ses,_ Wrapped in pa-per,_ Mean more to you_ than a-ny of mine._ Can-dy
| E C3-| C2 A c| A2 F2-| F c c A| G2 E2-| E z B,/2C/2 D| C4-| C z D E
w:kis-ses,_ wrapped in pa-per,_ You'd ra-ther have them_ A-ny old time._ You don't
| F2 F2-| F2 A c| A2 G2-| G z E _E| D2 D2-| D2 ^F A| G4-| G z E G
w:mean it_ when you whis-per_ Those sweet love words_ in my ear,_ Can-dy
| E C3-| C2 A c| A2 F2-| F c c A| G4-| G C B, D| C4-| C||
w:kis-ses,_ wrapped in pa-per,_ Mean more to you_ than mine do, dear._

CANDY KISSES
Words and music by George Morgan

[A7] candy [D] kisses ... [D7] wrapped in [G] paper ...
Mean more to [D] you ... than [E7] any of mine [A7] ...
Candy kisses [D] ... wrapped in [G] paper ...
You'd rather [D] have them ... [A7] any old [D] time. ... [D7]

You don't [G] mean it ... when you [D] whisper ...
Those sweet [E7] love words ... in my ear [A7] ...
Candy [D] kisses ... [D7] wrapped in [G] paper ...
Mean more to [D] you ... than [A7] mine do [D] dear.

I built a castle out of dreams, dear
I thought that you were building, too
Now my castles all have fallen
And I am left alone and blue.

Once my heart was filled with gladness
Now there's sadness, only tears
Candy kisses, wrapped in paper
Mean more to ou than mine do dear.